svgs/ebay_kleinanzeigen.svg

<svg width="192" height="192" viewBox="0 0 192 192" fill="none" xmlns="http://www.w3.org/2000/svg">
<mask id="mask0_547_139" style="mask-type:luminance" maskUnits="userSpaceOnUse" x="12" y="21" width="168" height="168">
<path d="M12.3298 21.0634H179.67V188.404H12.3298V21.0634Z" fill="white"/>
</mask>
<g mask="url(#mask0_547_139)">
<path d="M96 78.5867C77.0138 78.5867 68.9814 88.2986 68.9814 104.734C68.9814 121.169 77.0138 130.881 96 130.881C108.943 130.881 117.095 127.149 121.275 120.422" stroke="black" stroke-width="8" stroke-linecap="round" stroke-linejoin="round"/>
<path d="M95.7917 78.5867C114.924 78.5867 123.018 88.2986 123.018 104.734H69.853" stroke="black" stroke-width="8" stroke-linecap="round" stroke-linejoin="round"/>
</g>
<path d="M111.023 70.541C111.023 70.541 104.358 63.2691 74.0681 65.3708C44.3486 67.4329 20 74.1069 20 103.071C20 133.842 52.2156 142.769 86.9157 142.769C121.508 142.769 172 123.824 172 81.9544C172 46.7034 134.391 49.2895 124.073 49.2895C96.1852 49.2895 60.4953 74.0505 60.4953 74.0505" stroke="black" stroke-width="8.00002" stroke-linecap="round" stroke-linejoin="round"/>
</svg>

<svg xmlns="http://www.w3.org/2000/svg" width="192" height="192" fill="none" viewBox="0 0 192 192"><mask id="a" width="168" height="168" x="12" y="21" maskUnits="userSpaceOnUse" style="mask-type:luminance"><path fill="#fff" d="M12.33 21.063h167.34v167.341H12.33V21.064Z"/></mask><g stroke="#000" stroke-linecap="round" stroke-linejoin="round" stroke-width="8" mask="url(#a)"><path d="M96 78.587c-18.986 0-27.019 9.712-27.019 26.147S77.014 130.881 96 130.881c12.943 0 21.095-3.732 25.275-10.459"/><path d="M95.792 78.587c19.132 0 27.226 9.712 27.226 26.147H69.853"/></g><path stroke="#000" stroke-linecap="round" stroke-linejoin="round" stroke-width="8" d="M111.023 70.541s-6.665-7.272-36.955-5.17C44.348 67.433 20 74.107 20 103.07c0 30.771 32.216 39.698 66.916 39.698 34.592 0 85.084-18.945 85.084-60.815 0-35.25-37.609-32.664-47.927-32.664-27.888 0-63.578 24.76-63.578 24.76"/></svg>
